!!!COM:	Bach, Johann Sebastian
!!!CDT:	1685/02/21/-1750/07/28/
!!!OTL@@DE:	Die Sonn hat sich mit ihrem Glanz
!!!SCT:	BWV 297
!!!PC#:	232
!!!AGN:	chorale
**kern	**kern	**kern	**kern
*ICvox	*ICvox	*ICvox	*ICvox
*Ibass	*Itenor	*Ialto	*Isoprn
*I"Bass	*I"Tenor	*I"Alto	*I"Soprano
*	*oclefC4	*oclefC3	*oclefC1
*clefF4	*clefGv2	*clefG2	*clefG2
*k[]	*k[]	*k[]	*k[]
*d:dor	*d:dor	*d:dor	*d:dor
*M4/4	*M4/4	*M4/4	*M4/4
*met(c)	*met(c)	*met(c)	*met(c)
*MM100	*MM100	*MM100	*MM100
4D	4F	4A	4d
=1	=1	=1	=1
4D	4A	4.d	4f
4GG	4B-	.	4g
.	.	8e	.
4DD;	4d;	4f;	4a;
4D	4f	4a	4dd
=2	=2	=2	=2
4A	4e	4a	4.cc
4E	8.eL	4g#	.
.	.	.	8bnX
.	16dJk	.	.
4F	8cL	8aL	8aL
.	8dJ	8g#J	8bJ
8CL	8eL	4a	4cc
8DJ	8fJ	.	.
=3	=3	=3	=3
4E	8B	8aL	2b
.	4e	16g#L	.
.	.	16f#JJ	.
4EE	.	4g#	.
.	8d	.	.
4AA;	4c#;	4e;	4a;
4F	4d	4a	4dd
=4	=4	=4	=4
4B-	8dL	8aL	4dd
.	8eJ	8gnXJ	.
8AL	4fnX	4bnX	4dd
8G#J	.	.	.
4A;	4e;	4a;	4cc#;
4C#	4A	8aL	4ee
.	.	8gnXJ	.
=5	=5	=5	=5
8DL	4A	4f	4dd
8EJ	.	.	.
[4F	[4d	4f	4a
8FL]	8dL]	4g	4b-
8EJ	8cnXJ	.	.
4F	4c	4f	8aL
.	.	.	8gJ
=6	=6	=6	=6
4BB-	8dL	8fL	2g
.	8B-XJ	16eL	.
.	.	16dJJ	.
4C	8GL	4e	.
.	16cL	.	.
.	16B-JJ	.	.
4FF;	4A;	4c;	4f;
4BB-	4B-	4d	4f
=7	=7	=7	=7
4GG	4B-	4d	4e
4AA	8AL	4c#	4e
.	8GJ	.	.
4DD;	4F;	4A;	4d;
4D	4d	[4f	4a
=8	=8	=8	=8
8AAL	4cnX	8fL]	4ccnX
8GG	.	8eJ	.
8AA	4c	4f	4cc
8BB-J	.	.	.
4C	8cL	4e	8gL
.	8AJ	.	8aJ
8DL	8dL	8fL	4b-
8EJ	8cJ	8gJ	.
=9	=9	=9	=9
4F;	4c;	4f;	4a;
4D	4d	4f	4a
4AA	4.c	4f	4cc
4BB-	.	4f	4dd
.	8B-X	.	.
=10	=10	=10	=10
4FF;	4c;	4f;	4a;
4EE	4c	[4g	4cc
4FF	4c	8gL]	4a
.	.	16fL	.
.	.	16eJJ	.
4BB-	[4B-	4d	8gL
.	.	.	8fJ
=11	=11	=11	=11
4GG	8B-L]	4d	4.e
.	8GJ	.	.
4AA	8EL	4c#	.
.	16AL	.	8d
.	16GJJ	.	.
2DD;	2F#;	2A;	2d;
==	==	==	==
*-	*-	*-	*-
!!!YOR1: 371 vierstimmige Choralges&auml;nge von Johann Sebastian Bach, 
!!!YOR2: 4th ed. by Alfred D&ouml;rffel (Leipzig: Breitkopf und H&auml;rtel, 
!!!YOR2: c.1875). 178 pp. Plate "V.A.10".  reprint: J.S. Bach, 371 Four-Part 
!!!YOR4: Chorales (New York: Associated Music Publishers, Inc., c.1940).
!!!SMS: B&H, 4th ed, Alfred D&ouml;rffel, c.1875, plate V.A.10
!!!EED:  Craig Stuart Sapp
!!!EEV:  2009/05/22
